X: 46
T:Mrs Willis
% Nottingham Music Database
S:Helen
M:4/4
L:1/8
R:Hornpipe
K:F
P:A
(3FED|"F"CAGF CAGF|(3"Bb"DEDGB "G7"d4|"C7"c_cBG AGDE|(3"F"FAG(3FED "C7"C4|
"F"CAGF CAGF|(3"Bb"DEDGB "G7"d4|"C7"c_cBG AGDE|"F"F2A2 F2:|
K:C
P:B
"G7"G2|(3"C"edcG2 (3edcG2|(3"Dm"fedA2 (3fedA2|"G7"BG^FG AGed|\
(3"C"ced(3cBA "G7"G4|
(3"C"edcG2 (3edcG2|(3"Dm"fedA2 (3fedA2|"G7"BG^FG AGed|"C"c2e2 c2:|<end>
<start>
